X:33
T:dr Wisibärger Bb  ABCD
T:Fredy Wallimann (30.8.1952)
T:Dirigenten-Notiz  Edi Gasser
C:Unterwalden (CH)
%%partsbox
%P:ABCD
M:3/4
R:Naturjodel
L:1/4
K:Bb
Q:1/4=75
[P:A] F| d>df | cFd | B2D | FBd | c2E | Fd c | B>F B/c/  | 
d2F | d>df | cFd | B2D | Ffd | c2E | Fd c | (B3 | B)z || 
Q:1/4=95
[P:B]  FD/F/ B/c/ | d>cB | fFf | e>dc | FAB |
c>BA | f fe | d>cB | FD/F/ B/c/ | d>cB | 
fFf | e>dc | FAB | c>BA | fdc | B2z || 
Q:1/4=80
[P:C]  F| E2D | C2F | D2C | B,2B, | C2"_*"E | "_**"F2 E | D2C | 
B,2D/F/ | E2D | C2F/E/ | D2C | B,2D | C2F | D2C | (B,3 | B,)z || 
Q:1/4=120
[P:D] F/F/ | B2D | F>ED | C>CF | E2F/F/ | A2C | G>FE | D>Dd | 
B2F/F/ | B2D | F>ED | C>CF | E2F/F/ | A>CF | edc | (B3 | 
B)zF/F/ | B2D | F>ED | C>CF | E2F/F/ | A2C | G>FE | D>Dd | 
B2F/F/ | B2D | F>ED | C>CF | E2F/F/ | A>CF | eAc | (B3 | B)zz |] 
W:
W:Reihenfolge: A-B-C-D
W: * / ** = orig. E, / F,2 
W:
W:Naturjuiz - gewidmet dem Jodlerklub Wiesenberg zum 20jährigen Bestehen 2008
W:notiert Edi Gasser, nach Angaben von Fredy (Wallimann)
W:UJV-Naturjodelsammlung: Code-Nr: 17-17
W:http://www.naturjodler.ch/code 17-a.htm  (with AUDIO)

